!!!COM: Palestrina, Giovanni Perluigi da
!!!OPR: Missa Gia fu chi m'ebbe cara
!!!OMD: Credo
!!!OTL: Et in Spiritum
**kern	**kern	**kern	**kern
*Ibass	*Itenor	*Icalto	*Icant
!Bassus	!Tenor	!Altus	!Cantus
*clefF4	*clefGv2	*clefG2	*clefG2
*k[]	*k[]	*k[]	*k[]
*D:dor	*D:dor	*D:dor	*D:dor
*M4/2	*M4/2	*M4/2	*M4/2
=124	=124	=124	=124
1.d	1r	0r	0r
.	[1a	.	.
2d	.	.	.
=125	=125	=125	=125
2c	2a]	0r	0r
2B	2g	.	.
2A	2f	.	.
2c	2e	.	.
=126	=126	=126	=126
2B	2d	1r	0r
2.A	2f	.	.
.	2e	2r	.
4G	.	.	.
4F	[2d	[2a	.
4E	.	.	.
=127	=127	=127	=127
4D	4d]	2a]	0r
4E	4c	.	.
2F	4A	2a	.
.	4B	.	.
2E	4c	2g	.
.	4B	.	.
2D	[2d	2f	.
=128	=128	=128	=128
1A	2d]	1e	1r
.	2c#	.	.
1D	1d	2.f	2r
.	.	.	[2dd
.	.	4e	.
=129	=129	=129	=129
0r	2r	2d	2dd]
.	1a	2f	2dd
.	.	1e	2cc
.	2g	.	2b
=130	=130	=130	=130
0r	2f	2r	4a
.	.	.	4b
.	2f	1a	4cc
.	.	.	4a
.	1e	.	1b
.	.	2g	.
=131	=131	=131	=131
2r	2.A	1.cc	4a
.	.	.	4b
1A	.	.	4cc
.	4B	.	4dd
.	4c	.	4ee
.	4d	.	4ff
2A	4e	2cc	[2ee
.	4f	.	.
=132	=132	=132	=132
2G	4g	2b	2ee]
.	4e	.	.
2F	1a	2a	2dd
1E	.	1b	1ee
.	2g#	.	.
=133	=133	=133	=133
1A	1a	2r	2r
.	.	2a	2cc
1r	1r	1b-	2dd
.	.	.	[2ff
=134	=134	=134	=134
1A	2r	2.a	2ff]
.	2c	.	2ee
.	.	4g	.
1B-	2d	2f	2.dd
.	[2f	2d	.
.	.	.	4dd
=135	=135	=135	=135
2.A	2f]	1.a	1cc
.	2e	.	.
4G	.	.	.
2F	2d	.	1ff
2D	2d	2a	.
=136	=136	=136	=136
2A	1c	0a	2ee
2F	.	.	2.ff
4D	1f	.	.
4E	.	.	4ee
4F	.	.	[2dd
4G	.	.	.
=137	=137	=137	=137
1A	2e	2r	2dd]
.	2.f	1a	1cc
2F	.	.	.
.	4e	.	.
2G	[2d	2g	2b-
=138	=138	=138	=138
0A	2d]	2f	0a
.	4c#	4e	.
.	4B	4d	.
.	1c#	1e	.
=139	=139	=139	=139
2D	2d	2f#	2r
1G	1d	1g	1b
2G	2d	2g	2b
=140	=140	=140	=140
1C	1e	1g	1cc
1G	1d	2g	2b
.	.	2g	2b
=141	=141	=141	=141
1r	2r	2a	2cc
.	2g	2b	2dd
1C	2.e	[1cc	[1ee
.	4f	.	.
=142	=142	=142	=142
2.E	0g	2cc]	1ee]
.	.	4b	.
4F	.	4a	.
2G	.	2b	[1dd
[2G	.	[2b	.
=143	=143	=143	=143
2G]	2.g	2b]	2dd]
2G	.	2b	2dd
.	4g	.	.
1c	2g	2cc	1ee
.	[2e	2g	.
=144	=144	=144	=144
1A	2e]	2.a	1cc
.	2.a	.	.
.	.	4g	.
1B-	.	2f	[1dd
.	8g	.	.
.	8f	.	.
.	2g	4e	.
.	.	4d	.
=145	=145	=145	=145
1A	2.a	2f	2dd]
.	.	2e	2cc#
.	8g	.	.
.	8f	.	.
2r	2e	2r	2r
2G	2g	2b	2dd
=146	=146	=146	=146
2G	2g	2b	2dd
2G	2g	2b	2dd
1c	2g	2cc	1ee
.	[2e	2g	.
=147	=147	=147	=147
1A	2e]	2.a	1cc
.	1f	.	.
.	.	4g	.
1B-	.	2f	[1dd
.	4e	2g	.
.	4d	.	.
=148	=148	=148	=148
2A	2f	1a	2dd]
1A	2e	.	2cc#
.	2.e	2.a	2.cc#
2A	.	.	.
.	4e	4a	4cc#
=149	=149	=149	=149
2d	2f	2a	2dd
2d	2f	2b	2dd
2c	[1e	1cc	2ee
4A	.	.	4cc
4B	.	.	4dd
=150	=150	=150	=150
4c	1e]	2r	4ee
4B	.	.	4dd
4A	.	4a	4cc
4G	.	4b	4b
[1F	2r	4cc	2.a
.	.	4b	.
.	4f	4a	.
.	4g	4g	4b
=151	=151	=151	=151
2F]	4a	2f	2cc
.	4g	.	.
2F	4f	2a	2cc
.	4e	.	.
1G	2d	4g	1b
.	.	4f	.
.	4g	4e	.
.	4f	4d	.
=152	=152	=152	=152
1A	4e	4c#	[0a
.	4d	2d	.
.	2e	.	.
.	.	4c#	.
2r	1f	1d	.
2d	.	.	.
=153	=153	=153	=153
2c	2e	4A	1a]
.	.	4B	.
2A	2a	4c	.
.	.	4d	.
1c	2g	1e	1r
.	2e	.	.
=154	=154	=154	=154
2B	1g	0r	1r
2c	.	.	.
2d	2f	.	1dd
2B-	2g	.	.
=155	=155	=155	=155
0A	2a	1r	1.cc
.	2f	.	.
.	2e	1a	.
.	2f	.	2a
=156	=156	=156	=156
0r	2e	2g	2.cc
.	2c	2e	.
.	.	.	4cc
.	2.e	2.g	2b
.	.	.	2cc
.	4e	4g	.
=157	=157	=157	=157
0r	2d	2f	2dd
.	2e	2g	2b
.	2f	2a	[1a
.	2d	2f	.
=158	=158	=158	=158
1A	2.c	1e	0a]
.	4B	.	.
[1c	1A	2r	.
.	.	2e	.
=159	=159	=159	=159
2c]	1G	1.g	1r
2B	.	.	.
2c	1r	.	2r
2d	.	2f	2a
=160	=160	=160	=160
2e	0r	2g	1.cc
2f	.	2a	.
1e	.	2a	.
.	.	2g#	2b
=161	=161	=161	=161
2A	1r	1a	2cc
2d	.	.	2dd
2c	1A	1a	2ee
2F	.	.	2ff
=162	=162	=162	=162
1A	1.c	2r	1ee
.	.	2e	.
1G	.	2.g	2ee
.	2B	.	2dd
.	.	4g	.
=163	=163	=163	=163
0r	2c	2g	2ee
.	2d	2f	4dd
.	.	.	4cc
.	2e	2g	2b
.	2f	[2a	2a
=164	=164	=164	=164
1r	1e	2a]	1b
.	.	2g#	.
2r	2A	2a	1a
[2F	[2A	[2f	.
=165	=165	=165	=165
2F]	2A]	2f]	2r
2D	2A	2f	1a
[1A	2.c	1e	.
.	.	.	2a
.	4d	.	.
=166	=166	=166	=166
2A]	2e	1a	2.cc
2F	2A	.	.
.	.	.	4dd
2E	2c	2g	2ee
2D	2d	2f	2a
=167	=167	=167	=167
2A	2e	2a	2cc
2d	2f	2a	2dd
1c	1g	1cc	1ee
=168	=168	=168	=168
2G	2r	2b	2dd
1G	1g	1b	1dd
2G	2d	2g	2b
=169	=169	=169	=169
1F	2.f	2.a	0cc
.	8e	8g	.
.	8d	8f	.
1A	1c	2e	.
.	.	2f#	.
=170	=170	=170	=170
0G	2d	2g	2b
.	1g	1b	1dd
.	2g	2b	2dd
=171	=171	=171	=171
0r	2c	2cc	2ee
.	2c	2cc	2ee
.	1g	1b	1dd
=172	=172	=172	=172
0r	2f	2a	1dd
.	4g	2b	.
.	4f	.	.
.	4e	2g	[1ee
.	4d	.	.
.	4c	[2cc	.
.	4B	.	.
=173	=173	=173	=173
0r	2A	2cc]	2ee]
.	2B	2.b	2dd
.	2.c	.	1cc
.	.	4a	.
.	.	[2a	.
.	4d	.	.
=174	=174	=174	=174
1r	1e	2a]	1b
.	.	2g#	.
2r	2A	2a	2a
2A	2e	2a	2cc#
=175	=175	=175	=175
1d	1f#	1a	1dd
1G	2.g	2b-	2dd
.	.	[2b-	[2gg
.	8f	.	.
.	8e	.	.
=176	=176	=176	=176
0r	1d	2b-]	2gg]
.	.	1a	1ff
.	1r	.	.
.	.	2g	2ee
=177	=177	=177	=177
1r	2r	2f	2dd
.	1g	2e	2cc#
2r	.	2d	1dd
[2d	4f	[2b-	.
.	4e	.	.
=178	=178	=178	=178
2d]	2f	2b-]	1r
1c	1e	1a	.
.	.	.	2r
2B-	2d	2g	[2dd
=179	=179	=179	=179
1A	2e	2a	2dd]
.	2f	2a	1cc
1G	2g	2d	.
.	2g	2d	[2b-
=180	=180	=180	=180
1A	2f	2d	2b-]
.	1e	2c#	1a
1B-	.	2d	.
.	[2d	2d	2g
=181	=181	=181	=181
1A	2d]	1e	1a
.	2c#	.	.
1G	2d	1g	1b-
.	[2e	.	.
=182	=182	=182	=182
0A	2e]	2.f	0a
.	1d	.	.
.	.	8e	.
.	.	8d	.
.	.	1e	.
.	2c#	.	.
=183	=183	=183	=183
0D	0d	0f#	0a
==	==	==	==
*-	*-	*-	*-
!!!CDT: 1525/^1526/-1594/2/2
!!!OCY: Italia
!!!AGN: Mass (Parody)
!!!AST: renaissance, vocal
!!!ASW: Madrigal 1555 (Palestrina)
!!!PWK: Masses, Book 10
!!!RNB: Cadence finals: A
!!!YOR: Le Opere Complete, v. 27, p. 30
!!!YOO: Rome, Italy: Fratelli Scalera
!!!END: 1992//
!!!EED: John Miller
!!!YEC: Copyright 2000, John Miller
!!!YEN: United States of America
!!!YEM: Rights to all derivative electronic formats reserved.
!!!YEM: Refer to licensing agreement for further details.
!!!YEM: This file must be accompanied by the licensing agreement.
!!!YEM: A copy of the licensing agreement may be found at http://www.music-cog.ohio-state.edu/HumdrumDatabases/Palestrina/license.txt
!!!EMD: converted to Humdrum by Bret Aarden
